X: 0841
T: IRISH WASHERWOMAN
B: Oliver Ditson "The Boston Collection of Instrumental Music" 1910 p.84 #1
F: http://conquest.imslp.info/files/imglnks/usimg/8/8f/IMSLP175643-PMLP309456-bostoncollection00bost_bw.pdf
%: 2012 John Chambers <jc:trillian.mit.edu>
M: 6/8
L: 1/8
K: G
d |\
BGG DGG | BGB dcB | cAA DAA | cAc edc |\
BGG DGG | BGB dcB | cBc Adc | BGG G2 :|
|: g/a/ |\
bgg dgg | bgb bag | aff dff | afa agf |\
egg dgg | cgg Bgg | cBc Adc | BGG G2 :|

%%sep 1 1 500
%%sep 1 1 500
